svg/Outline/cloud-upload.svg

<svg viewBox="0 0 24 24" xmlns="http://www.w3.org/2000/svg" width="24" height="24"><path d="M11.37 7.16a.9.9 0 0 1 1.27 0l2.89 2.89a.9.9 0 0 1-1.27 1.27L12.9 9.97v9.36a.9.9 0 0 1-1.8 0V9.96l-1.35 1.35-.07.06a.9.9 0 0 1-1.27-1.26l.07-.07z"/><path d="M12 1c3.32 0 6.1 2.35 6.75 6.04.82.15 1.68.48 2.4 1.03a4.2 4.2 0 0 1 1.67 3.42c0 1.5-.57 2.68-1.55 3.47a5.6 5.6 0 0 1-3.48 1.07h-2.37a.9.9 0 1 1 0-1.8h2.37c1 0 1.82-.25 2.36-.68.51-.41.87-1.05.87-2.06 0-.93-.4-1.56-.96-2-.6-.45-1.4-.7-2.15-.74a.9.9 0 0 1-.82-.65l-.03-.16C16.73 4.65 14.51 2.8 12 2.8a4.6 4.6 0 0 0-4.43 3.33.9.9 0 0 1-.77.64c-1.1.1-2.05.5-2.73 1.11a3.4 3.4 0 0 0-1.1 2.62c0 2.15 1.75 3.73 4.07 3.73h1.78a.9.9 0 0 1 0 1.8H7.04c-3.14 0-5.86-2.22-5.86-5.53 0-1.66.64-3 1.68-3.95.87-.8 2-1.29 3.18-1.5A6.4 6.4 0 0 1 12 1"/></svg>

<svg viewBox="0 0 24 24" xmlns="http://www.w3.org/2000/svg" width="24" height="24"><path d="M11.37 7.16A.9 .9 0 0 1 12.64 7.16L15.53 10.05A.9 .9 0 0 1 14.26 11.32L12.9 9.97L12.9 19.33A.9 .9 0 0 1 11.1 19.33L11.1 9.96L9.68 11.37A.9 .9 0 0 1 8.41 10.11L8.48 10.04Z"/><path d="M12 1c3.32 0 6.1 2.35 6.75 6.04.82.15 1.68.48 2.4 1.03a4.2 4.2 0 0 1 1.67 3.42c0 1.5-.57 2.68-1.55 3.47a5.6 5.6 0 0 1-3.48 1.07h-2.37a.9.9 0 1 1 0-1.8h2.37c1 0 1.82-.25 2.36-.68.51-.41.87-1.05.87-2.06 0-.93-.4-1.56-.96-2-.6-.45-1.4-.7-2.15-.74a.9.9 0 0 1-.82-.65l-.03-.16C16.73 4.65 14.51 2.8 12 2.8a4.6 4.6 0 0 0-4.43 3.33.9.9 0 0 1-.77.64c-1.1.1-2.05.5-2.73 1.11a3.4 3.4 0 0 0-1.1 2.62c0 2.15 1.75 3.73 4.07 3.73h1.78a.9.9 0 0 1 0 1.8H7.04c-3.14 0-5.86-2.22-5.86-5.53 0-1.66.64-3 1.68-3.95.87-.8 2-1.29 3.18-1.5A6.4 6.4 0 0 1 12 1"/></svg>
